lib/logo_updates/nrk-logo-nrk-2.svg

<svg width="164" height="48" viewBox="0 0 164 48" fill="none" xmlns="http://www.w3.org/2000/svg">
<path d="M0 45V3.00381H13.7802V45H0ZM32.5283 9.68773L40.4532 45H25.3721L15.9092 3.00381H24.3676C26.3072 2.97864 28.1892 3.66237 29.6607 4.92636C31.1347 6.13734 32.1473 7.81844 32.5283 9.68773ZM42.5233 45V3.00381H56.3035V45H42.5233ZM66.7116 18.9743C65.2267 18.9888 63.7656 18.6003 62.4839 17.8504C61.2193 17.1194 60.1688 16.0689 59.438 14.8041C58.6872 13.5222 58.2986 12.0607 58.3134 10.5751C58.2964 9.09861 58.6853 7.64583 59.438 6.3755C60.1766 5.12447 61.2259 4.08533 62.4839 3.35882C63.766 2.60976 65.2269 2.2213 66.7116 2.23484C68.1877 2.21895 69.6399 2.60775 70.9108 3.35882C72.1562 4.09169 73.1943 5.12996 73.9271 6.3755C74.6789 7.64618 75.0677 9.09873 75.0517 10.5751C75.0655 12.0605 74.6769 13.5218 73.9271 14.8041C73.202 16.0633 72.1627 17.113 70.9108 17.8504C69.6398 18.6029 68.1866 18.9918 66.7097 18.9743H66.7116ZM77.1807 45V3.00381H90.9621V45H77.1807ZM108.408 25.9538C108.447 25.9946 108.742 26.4776 109.295 27.403C109.848 28.3283 110.567 29.5114 111.454 30.952C112.341 32.392 113.277 33.9199 114.262 35.536C115.247 37.1521 116.174 38.6803 117.043 40.1202C117.908 41.5602 118.894 43.1867 120 45H104.859C103.912 43.4621 103.055 42.0721 102.286 40.83C101.517 39.5878 100.7 38.2471 99.8334 36.8077C98.9653 35.3698 98.1071 33.9699 97.2587 32.6081C96.4103 31.2464 95.6813 30.0536 95.0714 29.0297C94.459 28.0051 94.0348 27.3149 93.7989 26.9594C93.2139 26.0771 92.8677 25.058 92.7944 24.0019C92.853 22.9883 93.1791 22.0084 93.7397 21.1619C93.9762 20.7676 94.41 20.0675 95.0409 19.062C95.6717 18.0564 96.411 16.8637 97.2587 15.4835C98.1064 14.1034 98.9647 12.6936 99.8334 11.2543C100.702 9.81501 101.519 8.46432 102.286 7.20247C103.056 5.94193 103.914 4.54205 104.859 3.00285H120L108.289 22.1082C107.926 22.6755 107.722 23.3292 107.697 24.0019C107.736 24.7081 107.983 25.3871 108.406 25.9538H108.408Z" fill="white"/>
<path d="M143.904 39.9196C144.841 39.1164 145.804 38.2816 146.821 37.3769C148.24 36.1153 149.669 34.7453 151.108 33.2669C152.547 31.7885 153.917 30.251 155.218 28.6543C156.482 27.1092 157.637 25.4791 158.678 23.7756C159.648 22.1922 160.442 20.5065 161.043 18.7491C161.602 17.1317 161.891 15.4337 161.9 13.7226C161.929 12.1246 161.606 10.5399 160.954 9.08047C160.31 7.70211 159.359 6.48872 158.176 5.53236C156.821 4.45944 155.262 3.6746 153.593 3.22604C151.541 2.66535 149.421 2.3966 147.295 2.42772C145.917 2.42407 144.542 2.54279 143.185 2.78251C141.894 3.01069 140.627 3.35709 139.399 3.81737C138.229 4.25591 137.093 4.7797 136 5.38449L136.768 10.5293C137.705 9.90146 138.706 9.37612 139.755 8.9622C140.895 8.50489 142.072 8.14869 143.274 7.89774C144.499 7.64112 145.747 7.51229 146.998 7.51335C148.31 7.48666 149.617 7.6663 150.873 8.04561C151.872 8.35164 152.791 8.87691 153.562 9.58313C154.257 10.231 154.793 11.0303 155.129 11.919C155.474 12.856 155.644 13.8479 155.633 14.8462C155.613 16.5217 155.271 18.1778 154.628 19.7249C153.88 21.5418 152.927 23.2678 151.789 24.8697C150.464 26.7517 149.022 28.549 147.472 30.251C145.817 32.0842 144.013 33.9174 142.061 35.7506C140.11 37.5838 138.089 39.4466 136 41.3389L136.768 45.0053H162.374L163.084 39.9196H143.904Z" fill="white"/>
</svg>

<svg xmlns="http://www.w3.org/2000/svg" viewBox="0 0 164 48"><path fill="#fff" d="M0 45V3.004h13.78V45H0ZM32.528 9.688 40.453 45h-15.08L15.908 3.004h8.459a7.965 7.965 0 0 1 5.293 1.922 8.31 8.31 0 0 1 2.867 4.762ZM42.523 45V3.004h13.78V45h-13.78Zm24.189-26.026a8.213 8.213 0 0 1-4.228-1.124 8.336 8.336 0 0 1-3.046-3.046 8.206 8.206 0 0 1-1.125-4.229 8.056 8.056 0 0 1 1.125-4.2 8.437 8.437 0 0 1 3.046-3.016 8.232 8.232 0 0 1 4.228-1.124 8.083 8.083 0 0 1 4.199 1.124 8.503 8.503 0 0 1 3.016 3.016 8.075 8.075 0 0 1 1.125 4.2 8.226 8.226 0 0 1-1.125 4.23 8.4 8.4 0 0 1-3.016 3.045 8.059 8.059 0 0 1-4.201 1.124h.002ZM77.18 45V3.004h13.781V45H77.181Zm31.227-19.046c.039.04.334.524.887 1.449.553.925 1.272 2.108 2.159 3.549a1143.28 1143.28 0 0 1 5.589 9.168A854.89 854.89 0 0 0 120 45h-15.141c-.947-1.538-1.804-2.928-2.573-4.17a382.214 382.214 0 0 1-2.453-4.022 351.934 351.934 0 0 0-2.574-4.2 213.445 213.445 0 0 1-2.188-3.578 62.753 62.753 0 0 0-1.272-2.07 6.119 6.119 0 0 1-1.005-2.958 5.744 5.744 0 0 1 .946-2.84c.236-.394.67-1.095 1.3-2.1.632-1.006 1.371-2.198 2.219-3.579a636.03 636.03 0 0 0 2.574-4.229c.869-1.439 1.686-2.79 2.453-4.052.77-1.26 1.628-2.66 2.573-4.2H120l-11.711 19.106a3.773 3.773 0 0 0-.592 1.894c.039.706.286 1.385.709 1.952h.002ZM143.904 39.92c.937-.804 1.9-1.638 2.917-2.543a82.405 82.405 0 0 0 4.287-4.11 70.042 70.042 0 0 0 4.11-4.613 43.646 43.646 0 0 0 3.46-4.878 25.29 25.29 0 0 0 2.365-5.027c.559-1.617.848-3.315.857-5.026a10.896 10.896 0 0 0-.946-4.643 10.016 10.016 0 0 0-2.778-3.548 12.686 12.686 0 0 0-4.583-2.306 22.636 22.636 0 0 0-6.298-.798 23.268 23.268 0 0 0-4.11.355 21.396 21.396 0 0 0-3.786 1.034c-1.17.439-2.306.963-3.399 1.567l.768 5.145a15.752 15.752 0 0 1 2.987-1.567 20.95 20.95 0 0 1 3.519-1.064 18.088 18.088 0 0 1 3.724-.385 12.52 12.52 0 0 1 3.875.533 7.03 7.03 0 0 1 2.689 1.537 6.182 6.182 0 0 1 1.567 2.336c.345.937.515 1.929.504 2.927a13.121 13.121 0 0 1-1.005 4.879 25.928 25.928 0 0 1-2.839 5.145 55.114 55.114 0 0 1-4.317 5.381 93.722 93.722 0 0 1-5.411 5.5A452.181 452.181 0 0 1 136 41.339l.768 3.666h25.606l.71-5.085h-19.18Z"/></svg>
